X: 42281
T: Weaver's Delight, The
R: polka
M: 2/4
K: Dmajor
A/G/|FD ED|d>d e>d|cA AF|G2 GA/G/|
FD ED|d>d e>d|cA BG|A2 A/B/A/G/|
FG/F/ ED|d>d e>d|c/B/A AF|G2 GA/G/|
FD ED|d>d e>d|cA/A/ BG|A2 A||
f/g/|a>f ge|fd e>d|B/c/d ef|g2- gf/g/|
a/b/a/f/ ge|fd e2|cA BG|A2 A/e/f/g/|
a>f g/a/g/e/|fd e>d|B/c/d ef|g2 gf/g/|
af ge|f/e/d e2|cA BG|A2- A||

